static/img/organizations/kogiQALogo.svg

<svg xmlns="http://www.w3.org/2000/svg" xml:space="preserve" width="1300" height="197.3" style="fill-rule:evenodd;clip-rule:evenodd;stroke-linejoin:round;stroke-miterlimit:2" viewBox="0 0 1374 350"><path d="M0 0h1334v750H0z" style="fill:none" transform="matrix(1.17202 0 0 .63919 -79.285 -76.04)"/><path d="M438.664 343.904V290h-14.013v98.719h14.013v-27.336l14.189 27.336h19.848l-20.208-37.152 20.339-39.422h-17.745z" style="fill:#24584d;fill-rule:nonzero" transform="matrix(3.2696 0 0 2.16377 -979.553 -578.845)"/><path d="M577.797 314.847h13.246v73.872h-13.246z" style="fill:#24584d" transform="matrix(3.46123 0 0 1.93298 -999.352 -488.202)"/><path d="M0-27.676c-2.549.235-5.178 1.074-7.014 2.934-2.199 2.139-3.272 5.18-3.604 8.176-.37 3.705-.033 7.645 1.837 10.938C-7.33-2.949-4.557-1.126-1.588-.579c2.841.706 5.895.324 8.509-.977 2.836-1.44 4.853-4.117 5.989-7.038.956-2.838 1.181-5.937.557-8.871-.701-3.547-2.863-6.86-6.022-8.688-2.213-1.36-4.886-1.773-7.445-1.523m-8.733-11.215c3.177-1.038 6.563-1.223 9.883-1.101 3.571.2 7.244 1.084 10.124 3.295.987.71 1.816 1.608 2.595 2.535-.088-1.461-.03-2.924-.045-4.384h13.794c-.003 16.353.002 32.708-.003 49.061-4.603 0-9.205-.009-13.808.006.051-1.506-.033-3.014.062-4.517-1.982 2.472-4.734 4.317-7.803 5.131-4.833 1.303-10.018 1.096-14.809-.292-4.809-1.511-9.066-4.727-11.81-8.958-2.806-4.1-4.039-9.073-4.343-13.979-.22-4.714.324-9.532 2.146-13.914 2.479-6.069 7.69-11.025 14.017-12.883" style="fill:#24584d;fill-rule:nonzero" transform="matrix(2.01524 0 0 2.01525 1314.657 238.19)"/><path d="M0-27.094a13.5 13.5 0 0 0-5.023 1.418c-1.289.739-2.365 1.808-3.271 2.974-1.763 2.534-2.367 5.672-2.449 8.706-.068 3.313.505 6.76 2.347 9.574 1.42 2.265 3.842 3.78 6.434 4.34 3.253.856 6.78.429 9.815-.987 2.773-1.41 4.505-4.274 5.322-7.192.916-3.636.861-7.523-.197-11.123-.83-2.694-2.66-5.138-5.206-6.414C5.4-27.054 2.634-27.286 0-27.094m-3.094-12.054c4.313-.534 8.734-.397 12.944.729.669.187 1.34.435 2.049.4 5.368-.023 10.736.02 16.106-.023q-.017 3.951 0 7.902c-1.622.115-3.223.432-4.846.5 2.642 3.6 4.119 7.946 4.624 12.36.616 5.416.005 11.066-2.394 16.009A22.65 22.65 0 0 1 17.751 7.8c-4.701 3.418-10.586 4.788-16.328 4.781-4.381-.068-8.848-.797-12.785-2.797-3.139-1.587-6.028-3.77-8.19-6.561-2.985-3.775-4.683-8.461-5.224-13.217-.5-4.537-.08-9.205 1.49-13.507 1.421-3.843 3.737-7.418 6.938-10.014 3.728-3.156 8.441-4.998 13.254-5.633" style="fill:#24584d;fill-rule:nonzero" transform="matrix(3.30477 0 0 3.30479 862.573 222.001)"/><path d="M0-27.094a13.5 13.5 0 0 0-5.023 1.418c-1.289.739-2.365 1.808-3.271 2.974-1.763 2.534-2.367 5.672-2.449 8.706-.068 3.313.505 6.76 2.347 9.574 1.42 2.265 3.842 3.78 6.434 4.34 3.253.856 6.78.429 9.815-.987 2.773-1.41 4.505-4.274 5.322-7.192.916-3.636.861-7.523-.197-11.123-.83-2.694-2.66-5.138-5.206-6.414C5.4-27.054 2.634-27.286 0-27.094m-3.094-12.054c4.313-.534 8.734-.397 12.944.729.669.187 1.34.435 2.049.4 5.368-.023 10.736.02 16.106-.023-.012 2.634 0 7.902 0 7.902s-3.223.432-4.846.5c2.642 3.6 4.119 7.946 4.624 12.36.616 5.416.005 11.066-2.394 16.009A22.65 22.65 0 0 1 17.751 7.8c-4.701 3.418-10.586 4.788-16.328 4.781-4.381-.068-8.848-.797-12.785-2.797-3.139-1.587-6.028-3.77-8.19-6.561-2.985-3.775-4.683-8.461-5.224-13.217-.5-4.537-.08-9.205 1.49-13.507 1.421-3.843 3.737-7.418 6.938-10.014 3.728-3.156 8.441-4.998 13.254-5.633" style="fill:#24584d;fill-rule:nonzero" transform="matrix(1.999 0 0 -2.01525 1188.032 183.267)"/><path d="M0-27.091c-1.867.16-3.723.679-5.34 1.638-2.202 1.331-3.727 3.565-4.526 5.98-.982 3.001-1.081 6.238-.64 9.347.515 3.261 1.98 6.596 4.823 8.461C-2.13.615 2.502.902 6.441-.479c1.941-.654 3.696-1.915 4.836-3.625 2.377-3.266 2.746-7.512 2.477-11.42-.292-3.495-1.558-7.21-4.499-9.35C6.634-26.863 3.206-27.365 0-27.091M-2.194-39.25c6.873-.704 14.183.435 19.953 4.427a23.8 23.8 0 0 1 7.182 8.049c3.037 5.922 3.786 12.881 2.488 19.377-.712 3.258-1.875 6.459-3.741 9.24-1.38 1.822-2.858 3.605-4.653 5.036a24.9 24.9 0 0 1-9.932 4.826 33.2 33.2 0 0 1-14.221.192 24.95 24.95 0 0 1-9.844-4.289c-4.104-2.966-7.171-7.285-8.656-12.126a31.96 31.96 0 0 1-.438-16.416c.817-3.548 2.535-6.846 4.777-9.695 4.229-5.038 10.581-8.031 17.085-8.621" style="fill:#24584d;fill-rule:nonzero" transform="matrix(3.30477 0 0 3.30479 664.078 222.151)"/><path d="M-2.194-39.25c6.873-.704 14.183.435 19.953 4.427a23.8 23.8 0 0 1 7.182 8.049c3.037 5.922 3.786 12.881 2.488 19.377-.712 3.258-1.875 6.459-3.741 9.24-1.38 1.822-2.858 3.605-4.653 5.036a24.9 24.9 0 0 1-9.932 4.826 33.2 33.2 0 0 1-14.221.192 24.95 24.95 0 0 1-9.844-4.289c-4.104-2.966-7.171-7.285-8.656-12.126a31.96 31.96 0 0 1-.438-16.416c.817-3.548 2.535-6.846 4.777-9.695 4.229-5.038 10.581-8.031 17.085-8.621" style="fill:#24584d;fill-rule:nonzero" transform="translate(1021.792 84.552)scale(.85727)"/><path d="M-2.194-39.25c6.873-.704 14.183.435 19.953 4.427a23.8 23.8 0 0 1 7.182 8.049c3.037 5.922 3.786 12.881 2.488 19.377-.712 3.258-1.875 6.459-3.741 9.24-1.38 1.822-2.858 3.605-4.653 5.036a24.9 24.9 0 0 1-9.932 4.826 33.2 33.2 0 0 1-14.221.192 24.95 24.95 0 0 1-9.844-4.289c-4.104-2.966-7.171-7.285-8.656-12.126a31.96 31.96 0 0 1-.438-16.416c.817-3.548 2.535-6.846 4.777-9.695 4.229-5.038 10.581-8.031 17.085-8.621" style="fill:#24584d;fill-rule:nonzero" transform="translate(1095.348 257.1)scale(.57517)"/><path d="M0-22.782c4.775.042 9.552.018 14.33.013-.101 3.188 1.541 6.354 4.242 8.059 2.834 2.014 6.477 2.424 9.855 2.115 2.189-.113 4.302-.915 6.144-2.073 2.676-1.758 4.371-4.883 4.341-8.094q7.115.002 14.232 0c-.036 4.292-1.001 8.668-3.348 12.309-2.444 3.827-6.282 6.636-10.509 8.211C34.471-.477 29.275 0 24.178-.217 19.204-.542 14.123-1.54 9.839-4.214 7.21-5.737 4.995-7.932 3.35-10.478 1.003-14.123.082-18.495 0-22.782" style="fill:#24584d;fill-rule:nonzero" transform="matrix(3.30477 0 0 3.30479 779.893 345.244)"/><path d="M0-21.44c-4.171-11.47-11.5-26.74-27.04-35.95 11.72-18.4 30.369-39.22 45.689-39.23.491 0 .971.02 1.441.07 5.05.44 6.229 7.68 6.319 13.68C26.78-61.23 13.46-30.67 0-21.44m-137.89-75.18c15.32 0 33.969 20.83 45.69 39.23-15.54 9.21-22.87 24.48-27.04 35.95-13.46-9.23-26.781-39.79-26.41-61.43.1-6 1.27-13.24 6.32-13.68.47-.05.95-.07 1.44-.07M21.22-109.5a27 27 0 0 0-2.561-.12c-26.099 0-50.069 34.69-57.729 46.96-6.18-1.88-13.09-2.85-20.54-2.88-7.47.03-14.38 1-20.561 2.88-7.649-12.27-31.619-46.95-57.729-46.96q-1.293 0-2.57.12c-5.33.46-17.801 3.97-18.18 26.41-.21 12.7 3.549 28.81 10.04 43.11 6.92 15.24 15.88 26.28 25.349 31.25-.379 1.33-.739 2.63-1.09 3.88-1.089 3.92-2.029 7.31-2.99 9.91-6.939 18.58 2.561 33.72 5.511 37.78l-8.55 37.39c-.391 1.69-.1 3.43.83 4.9a6.46 6.46 0 0 0 4.05 2.88c.45.11.95.17 1.46.17 3.05 0 5.65-2.08 6.33-5.05l6.46-28.24 19.46 21.83c1.229 1.39 3 2.18 4.859 2.18 1.59 0 3.131-.59 4.321-1.65 2.67-2.38 2.91-6.5.53-9.17l-26.13-29.31-2.721-3.05c-.539-.68-2.299-3.02-3.779-6.6-1.84-4.51-3.42-11.56-.461-19.53 1.141-3.03 2.101-6.46 3.341-10.97.54-1.93 1.1-3.94 1.69-5.97.73-2.55 1.459-4.88 2.219-7.11C-101.99-32.1-91.14-52.38-59.61-52.54c31.509.16 42.36 20.44 48.29 38.08a147 147 0 0 1 2.219 7.11c.59 2.03 1.151 4.04 1.691 5.97C-6.171 3.14-5.2 6.58-4.07 9.6c2.96 7.96 1.38 15.01-.46 19.52-1.481 3.58-3.241 5.93-3.781 6.6l-2.719 3.05-26.12 29.3c-2.38 2.68-2.14 6.8.52 9.18a6.52 6.52 0 0 0 4.319 1.65c1.861 0 3.63-.79 4.861-2.18l19.46-21.83 6.46 28.24a6.47 6.47 0 0 0 6.33 5.05 6.52 6.52 0 0 0 5.519-3.05 6.46 6.46 0 0 0 .83-4.91L2.59 42.84c2.95-4.06 12.45-19.2 5.51-37.78-.96-2.59-1.9-5.98-2.99-9.9-.35-1.26-.711-2.56-1.09-3.89 9.469-4.97 18.44-16.01 25.36-31.25 6.49-14.3 10.24-30.42 10.029-43.11-.379-22.44-12.84-25.95-18.189-26.41" style="fill:#24584d;fill-rule:nonzero" transform="translate(246.447 175.866)scale(1.51792)"/><path d="M-7.231-7.231c-3.99 0-7.23 3.24-7.23 7.231a7.23 7.23 0 0 0 7.23 7.231A7.23 7.23 0 0 0 0 0a7.235 7.235 0 0 0-7.231-7.231" style="fill:#24584d;fill-rule:nonzero" transform="matrix(0 -1.51792 -1.51792 0 116.877 146.174)"/><path d="M-7.225-7.225a7.227 7.227 0 0 0-7.23 7.229c0 3.991 3.24 7.221 7.23 7.221S.005 3.995.005.004c0-4-3.24-7.229-7.23-7.229" style="fill:#24584d;fill-rule:nonzero" transform="matrix(0 -1.51792 -1.51792 0 195.027 146.182)"/><path d="M0 38.15c-4.19 2.1-8.181 3.15-11.91 3.15-2.95 0-5.75-.65-8.38-1.95s-4.8-3.13-6.59-5.17c-1.79 2.04-3.96 3.87-6.59 5.17a18.7 18.7 0 0 1-8.37 1.95c-3.74 0-7.73-1.05-11.92-3.15a4.984 4.984 0 0 1-2.23-6.7 4.97 4.97 0 0 1 4.46-2.77c.75 0 1.52.17 2.24.53 2.769 1.39 5.23 2.08 7.41 2.08 1.43 0 2.74-.3 3.96-.89 3.63-1.79 6.069-6.11 7.5-9.73-1.88-.54-15.12-4.77-14.97-14.55.13-8.43 11.92-9.27 16.61-9.27 1.17 0 1.9.05 1.9.05h.01s.721-.05 1.891-.05c4.699 0 16.489.84 16.609 9.27.16 9.78-13.09 14.01-14.96 14.55 1.42 3.62 3.87 7.94 7.5 9.73 1.21.59 2.52.89 3.95.89 2.18 0 4.64-.69 7.42-2.08.71-.36 1.481-.53 2.231-.53a4.96 4.96 0 0 1 4.458 2.77A4.98 4.98 0 0 1 0 38.15" style="fill:#24584d;fill-rule:nonzero" transform="translate(196.75 184.912)scale(1.51792)"/></svg>

<?xml version="1.0" encoding="UTF-8" standalone="no"?>
<!DOCTYPE svg PUBLIC "-//W3C//DTD SVG 1.1//EN" "http://www.w3.org/Graphics/SVG/1.1/DTD/svg11.dtd">
<svg width="1300" height="197.3" viewBox="0 0 1374 350" version="1.1" xmlns="http://www.w3.org/2000/svg" xmlns:xlink="http://www.w3.org/1999/xlink" xml:space="preserve" xmlns:serif="http://www.serif.com/" style="fill-rule:evenodd;clip-rule:evenodd;stroke-linejoin:round;stroke-miterlimit:2;">
    <g id="Artboard1" transform="matrix(1.17202,0,0,0.639189,-79.2854,-65.0402)">
        <g transform="matrix(1,0,0,1,0,-17.2093)">
            <rect x="0" y="0" width="1334" height="750" style="fill:none;"/>
        </g>
        <g transform="matrix(2.78972,0,0,3.38518,-768.133,-803.838)">
            <path d="M438.664,343.904L438.664,290L424.651,290L424.651,388.719L438.664,388.719L438.664,361.383L452.853,388.719L472.701,388.719L452.493,351.567L472.832,312.145L455.087,312.145L438.664,343.904Z" style="fill:rgb(36,88,77);fill-rule:nonzero;"/>
        </g>
        <g transform="matrix(2.95322,0,0,3.02411,-785.026,-662.029)">
            <rect x="577.797" y="314.847" width="13.246" height="73.872" style="fill:rgb(36,88,77);"/>
        </g>
        <g transform="matrix(1.71946,0,0,3.15283,1189.35,474.398)">
            <path d="M0,-27.676C-2.549,-27.441 -5.178,-26.602 -7.014,-24.742C-9.213,-22.603 -10.286,-19.562 -10.618,-16.566C-10.988,-12.861 -10.651,-8.921 -8.781,-5.628C-7.33,-2.949 -4.557,-1.126 -1.588,-0.579C1.253,0.127 4.307,-0.255 6.921,-1.556C9.757,-2.996 11.774,-5.673 12.91,-8.594C13.866,-11.432 14.091,-14.531 13.467,-17.465C12.766,-21.012 10.604,-24.325 7.445,-26.153C5.232,-27.513 2.559,-27.926 0,-27.676M-8.733,-38.891C-5.556,-39.929 -2.17,-40.114 1.15,-39.992C4.721,-39.792 8.394,-38.908 11.274,-36.697C12.261,-35.987 13.09,-35.089 13.869,-34.162C13.781,-35.623 13.839,-37.086 13.824,-38.546L27.618,-38.546C27.615,-22.193 27.62,-5.838 27.615,10.515C23.012,10.515 18.41,10.506 13.807,10.521C13.858,9.015 13.774,7.507 13.869,6.004C11.887,8.476 9.135,10.321 6.066,11.135C1.233,12.438 -3.952,12.231 -8.743,10.843C-13.552,9.332 -17.809,6.116 -20.553,1.885C-23.359,-2.215 -24.592,-7.188 -24.896,-12.094C-25.116,-16.808 -24.572,-21.626 -22.75,-26.008C-20.271,-32.077 -15.06,-37.033 -8.733,-38.891" style="fill:rgb(36,88,77);fill-rule:nonzero;"/>
        </g>
        <g transform="matrix(2.81972,0,0,5.17028,803.62,449.071)">
            <path d="M0,-27.094C-1.745,-26.947 -3.465,-26.475 -5.023,-25.676C-6.312,-24.937 -7.388,-23.868 -8.294,-22.702C-10.057,-20.168 -10.661,-17.03 -10.743,-13.996C-10.811,-10.683 -10.238,-7.236 -8.396,-4.422C-6.976,-2.157 -4.554,-0.642 -1.962,-0.082C1.291,0.774 4.818,0.347 7.853,-1.069C10.626,-2.479 12.358,-5.343 13.175,-8.261C14.091,-11.897 14.036,-15.784 12.978,-19.384C12.148,-22.078 10.318,-24.522 7.772,-25.798C5.4,-27.054 2.634,-27.286 0,-27.094M-3.094,-39.148C1.219,-39.682 5.64,-39.545 9.85,-38.419C10.519,-38.232 11.19,-37.984 11.899,-38.019C17.267,-38.042 22.635,-37.999 28.005,-38.042C27.993,-35.408 27.995,-32.774 28.005,-30.14C26.383,-30.025 24.782,-29.708 23.159,-29.64C25.801,-26.04 27.278,-21.694 27.783,-17.28C28.399,-11.864 27.788,-6.214 25.389,-1.271C23.703,2.362 21.047,5.525 17.751,7.8C13.05,11.218 7.165,12.588 1.423,12.581C-2.958,12.513 -7.425,11.784 -11.362,9.784C-14.501,8.197 -17.39,6.014 -19.552,3.223C-22.537,-0.552 -24.235,-5.238 -24.776,-9.994C-25.276,-14.531 -24.856,-19.199 -23.286,-23.501C-21.865,-27.344 -19.549,-30.919 -16.348,-33.515C-12.62,-36.671 -7.907,-38.513 -3.094,-39.148" style="fill:rgb(36,88,77);fill-rule:nonzero;"/>
        </g>
        <g transform="matrix(1.7056,3.82997e-16,2.10573e-16,-3.15283,1081.31,388.473)">
            <path d="M0,-27.094C-1.745,-26.947 -3.465,-26.475 -5.023,-25.676C-6.312,-24.937 -7.388,-23.868 -8.294,-22.702C-10.057,-20.168 -10.661,-17.03 -10.743,-13.996C-10.811,-10.683 -10.238,-7.236 -8.396,-4.422C-6.976,-2.157 -4.554,-0.642 -1.962,-0.082C1.291,0.774 4.818,0.347 7.853,-1.069C10.626,-2.479 12.358,-5.343 13.175,-8.261C14.091,-11.897 14.036,-15.784 12.978,-19.384C12.148,-22.078 10.318,-24.522 7.772,-25.798C5.4,-27.054 2.634,-27.286 0,-27.094M-3.094,-39.148C1.219,-39.682 5.64,-39.545 9.85,-38.419C10.519,-38.232 11.19,-37.984 11.899,-38.019C17.267,-38.042 22.635,-37.999 28.005,-38.042C27.993,-35.408 28.005,-30.14 28.005,-30.14C28.005,-30.14 24.782,-29.708 23.159,-29.64C25.801,-26.04 27.278,-21.694 27.783,-17.28C28.399,-11.864 27.788,-6.214 25.389,-1.271C23.703,2.362 21.047,5.525 17.751,7.8C13.05,11.218 7.165,12.588 1.423,12.581C-2.958,12.513 -7.425,11.784 -11.362,9.784C-14.501,8.197 -17.39,6.014 -19.552,3.223C-22.537,-0.552 -24.235,-5.238 -24.776,-9.994C-25.276,-14.531 -24.856,-19.199 -23.286,-23.501C-21.865,-27.344 -19.549,-30.919 -16.348,-33.515C-12.62,-36.671 -7.907,-38.513 -3.094,-39.148" style="fill:rgb(36,88,77);fill-rule:nonzero;"/>
        </g>
        <g transform="matrix(2.81972,0,0,5.17028,634.258,449.306)">
            <path d="M0,-27.091C-1.867,-26.931 -3.723,-26.412 -5.34,-25.453C-7.542,-24.122 -9.067,-21.888 -9.866,-19.473C-10.848,-16.472 -10.947,-13.235 -10.506,-10.126C-9.991,-6.865 -8.526,-3.53 -5.683,-1.665C-2.13,0.615 2.502,0.902 6.441,-0.479C8.382,-1.133 10.137,-2.394 11.277,-4.104C13.654,-7.37 14.023,-11.616 13.754,-15.524C13.462,-19.019 12.196,-22.734 9.255,-24.874C6.634,-26.863 3.206,-27.365 0,-27.091M-2.194,-39.25C4.679,-39.954 11.989,-38.815 17.759,-34.823C20.725,-32.738 23.209,-29.96 24.941,-26.774C27.978,-20.852 28.727,-13.893 27.429,-7.397C26.717,-4.139 25.554,-0.938 23.688,1.843C22.308,3.665 20.83,5.448 19.035,6.879C16.141,9.203 12.718,10.868 9.103,11.705C4.449,12.796 -0.439,12.863 -5.118,11.897C-8.658,11.203 -12.046,9.73 -14.962,7.608C-19.066,4.642 -22.133,0.323 -23.618,-4.518C-25.193,-9.826 -25.341,-15.551 -24.056,-20.934C-23.239,-24.482 -21.521,-27.78 -19.279,-30.629C-15.05,-35.667 -8.698,-38.66 -2.194,-39.25" style="fill:rgb(36,88,77);fill-rule:nonzero;"/>
        </g>
        <g transform="matrix(0.731445,0,0,1.34119,939.47,234.035)">
            <path d="M-2.194,-39.25C4.679,-39.954 11.989,-38.815 17.759,-34.823C20.725,-32.738 23.209,-29.96 24.941,-26.774C27.978,-20.852 28.727,-13.893 27.429,-7.397C26.717,-4.139 25.554,-0.938 23.688,1.843C22.308,3.665 20.83,5.448 19.035,6.879C16.141,9.203 12.718,10.868 9.103,11.705C4.449,12.796 -0.439,12.863 -5.118,11.897C-8.658,11.203 -12.046,9.73 -14.962,7.608C-19.066,4.642 -22.133,0.323 -23.618,-4.518C-25.193,-9.826 -25.341,-15.551 -24.056,-20.934C-23.239,-24.482 -21.521,-27.78 -19.279,-30.629C-15.05,-35.667 -8.698,-38.66 -2.194,-39.25" style="fill:rgb(36,88,77);fill-rule:nonzero;"/>
        </g>
        <g transform="matrix(0.490749,0,0,0.899843,1002.23,503.982)">
            <path d="M-2.194,-39.25C4.679,-39.954 11.989,-38.815 17.759,-34.823C20.725,-32.738 23.209,-29.96 24.941,-26.774C27.978,-20.852 28.727,-13.893 27.429,-7.397C26.717,-4.139 25.554,-0.938 23.688,1.843C22.308,3.665 20.83,5.448 19.035,6.879C16.141,9.203 12.718,10.868 9.103,11.705C4.449,12.796 -0.439,12.863 -5.118,11.897C-8.658,11.203 -12.046,9.73 -14.962,7.608C-19.066,4.642 -22.133,0.323 -23.618,-4.518C-25.193,-9.826 -25.341,-15.551 -24.056,-20.934C-23.239,-24.482 -21.521,-27.78 -19.279,-30.629C-15.05,-35.667 -8.698,-38.66 -2.194,-39.25" style="fill:rgb(36,88,77);fill-rule:nonzero;"/>
        </g>
        <g transform="matrix(2.81972,0,0,5.17028,733.075,641.883)">
            <path d="M0,-22.782C4.775,-22.74 9.552,-22.764 14.33,-22.769C14.229,-19.581 15.871,-16.415 18.572,-14.71C21.406,-12.696 25.049,-12.286 28.427,-12.595C30.616,-12.708 32.729,-13.51 34.571,-14.668C37.247,-16.426 38.942,-19.551 38.912,-22.762C43.656,-22.762 48.399,-22.76 53.144,-22.762C53.108,-18.47 52.143,-14.094 49.796,-10.453C47.352,-6.626 43.514,-3.817 39.287,-2.242C34.471,-0.477 29.275,0 24.178,-0.217C19.204,-0.542 14.123,-1.54 9.839,-4.214C7.21,-5.737 4.995,-7.932 3.35,-10.478C1.003,-14.123 0.082,-18.495 0,-22.782" style="fill:rgb(36,88,77);fill-rule:nonzero;"/>
        </g>
        <g transform="matrix(1.29513,0,0,2.37476,277.924,376.893)">
            <path d="M0,-21.44C-4.171,-32.91 -11.5,-48.18 -27.04,-57.39C-15.32,-75.79 3.329,-96.61 18.649,-96.62C19.14,-96.62 19.62,-96.6 20.09,-96.55C25.14,-96.11 26.319,-88.87 26.409,-82.87C26.78,-61.23 13.46,-30.67 0,-21.44M-137.89,-96.62C-122.57,-96.62 -103.921,-75.79 -92.2,-57.39C-107.74,-48.18 -115.07,-32.91 -119.24,-21.44C-132.7,-30.67 -146.021,-61.23 -145.65,-82.87C-145.55,-88.87 -144.38,-96.11 -139.33,-96.55C-138.86,-96.6 -138.38,-96.62 -137.89,-96.62M21.22,-109.5C20.38,-109.58 19.52,-109.62 18.659,-109.62C-7.44,-109.62 -31.41,-74.93 -39.07,-62.66C-45.25,-64.54 -52.16,-65.51 -59.61,-65.54C-67.08,-65.51 -73.99,-64.54 -80.171,-62.66C-87.82,-74.93 -111.79,-109.61 -137.9,-109.62C-138.761,-109.62 -139.62,-109.58 -140.47,-109.5C-145.8,-109.04 -158.271,-105.53 -158.65,-83.09C-158.86,-70.39 -155.101,-54.28 -148.61,-39.98C-141.69,-24.74 -132.73,-13.7 -123.261,-8.73C-123.64,-7.4 -124,-6.1 -124.351,-4.85C-125.44,-0.93 -126.38,2.46 -127.341,5.06C-134.28,23.64 -124.78,38.78 -121.83,42.84L-130.38,80.23C-130.771,81.92 -130.48,83.66 -129.55,85.13C-128.63,86.6 -127.19,87.62 -125.5,88.01C-125.05,88.12 -124.55,88.18 -124.04,88.18C-120.99,88.18 -118.39,86.1 -117.71,83.13L-111.25,54.89L-91.79,76.72C-90.561,78.11 -88.79,78.9 -86.931,78.9C-85.341,78.9 -83.8,78.31 -82.61,77.25C-79.94,74.87 -79.7,70.75 -82.08,68.08L-108.21,38.77L-110.931,35.72C-111.47,35.04 -113.23,32.7 -114.71,29.12C-116.55,24.61 -118.13,17.56 -115.171,9.59C-114.03,6.56 -113.07,3.13 -111.83,-1.38C-111.29,-3.31 -110.73,-5.32 -110.14,-7.35C-109.41,-9.9 -108.681,-12.23 -107.921,-14.46C-101.99,-32.1 -91.14,-52.38 -59.61,-52.54C-28.101,-52.38 -17.25,-32.1 -11.32,-14.46C-10.561,-12.25 -9.841,-9.92 -9.101,-7.35C-8.511,-5.32 -7.95,-3.31 -7.41,-1.38C-6.171,3.14 -5.2,6.58 -4.07,9.6C-1.11,17.56 -2.69,24.61 -4.53,29.12C-6.011,32.7 -7.771,35.05 -8.311,35.72L-11.03,38.77L-37.15,68.07C-39.53,70.75 -39.29,74.87 -36.63,77.25C-35.431,78.31 -33.9,78.9 -32.311,78.9C-30.45,78.9 -28.681,78.11 -27.45,76.72L-7.99,54.89L-1.53,83.13C-0.851,86.1 1.76,88.18 4.8,88.18C5.31,88.18 5.81,88.12 6.28,88.01C7.95,87.62 9.39,86.6 10.319,85.13C11.239,83.66 11.54,81.92 11.149,80.22L2.59,42.84C5.54,38.78 15.04,23.64 8.1,5.06C7.14,2.47 6.2,-0.92 5.11,-4.84C4.76,-6.1 4.399,-7.4 4.02,-8.73C13.489,-13.7 22.46,-24.74 29.38,-39.98C35.87,-54.28 39.62,-70.4 39.409,-83.09C39.03,-105.53 26.569,-109.04 21.22,-109.5" style="fill:rgb(36,88,77);fill-rule:nonzero;"/>
        </g>
        <g transform="matrix(0,-2.37476,-1.29513,0,167.371,330.441)">
            <path d="M-7.231,-7.231C-11.221,-7.231 -14.461,-3.991 -14.461,-0C-14.461,3.999 -11.221,7.231 -7.231,7.231C-3.241,7.231 -0,3.999 -0,-0C-0,-3.991 -3.241,-7.231 -7.231,-7.231" style="fill:rgb(36,88,77);fill-rule:nonzero;"/>
        </g>
        <g transform="matrix(0,-2.37476,-1.29513,0,234.051,330.454)">
            <path d="M-7.225,-7.225C-11.215,-7.225 -14.455,-3.996 -14.455,0.004C-14.455,3.995 -11.215,7.225 -7.225,7.225C-3.235,7.225 0.005,3.995 0.005,0.004C0.005,-3.996 -3.235,-7.225 -7.225,-7.225" style="fill:rgb(36,88,77);fill-rule:nonzero;"/>
        </g>
        <g transform="matrix(1.29513,0,0,2.37476,235.521,391.046)">
            <path d="M0,38.15C-4.19,40.25 -8.181,41.3 -11.91,41.3C-14.86,41.3 -17.66,40.65 -20.29,39.35C-22.92,38.05 -25.09,36.22 -26.88,34.18C-28.67,36.22 -30.84,38.05 -33.47,39.35C-36.101,40.65 -38.899,41.3 -41.84,41.3C-45.58,41.3 -49.57,40.25 -53.76,38.15C-56.229,36.92 -57.229,33.92 -55.99,31.45C-55.12,29.69 -53.36,28.68 -51.53,28.68C-50.78,28.68 -50.01,28.85 -49.29,29.21C-46.521,30.6 -44.06,31.29 -41.88,31.29C-40.45,31.29 -39.14,30.99 -37.92,30.4C-34.29,28.61 -31.851,24.29 -30.42,20.67C-32.3,20.13 -45.54,15.9 -45.39,6.12C-45.26,-2.31 -33.47,-3.15 -28.78,-3.15C-27.61,-3.15 -26.88,-3.1 -26.88,-3.1L-26.87,-3.1C-26.87,-3.1 -26.149,-3.15 -24.979,-3.15C-20.28,-3.15 -8.49,-2.31 -8.37,6.12C-8.21,15.9 -21.46,20.13 -23.33,20.67C-21.91,24.29 -19.46,28.61 -15.83,30.4C-14.62,30.99 -13.31,31.29 -11.88,31.29C-9.7,31.29 -7.24,30.6 -4.46,29.21C-3.75,28.85 -2.979,28.68 -2.229,28.68C-0.399,28.68 1.36,29.69 2.229,31.45C3.47,33.92 2.47,36.92 0,38.15" style="fill:rgb(36,88,77);fill-rule:nonzero;"/>
        </g>
    </g>
</svg>
